outputs/icons/date_time/clock_rollover_round.svg

<svg xmlns="http://www.w3.org/2000/svg" width="1200" height="1200" fill="none"><path fill="#000" d="M581.97 351.045h3c20 0 36 16 36 36v227l193.5 115c17.5 10 23 32.5 12.5 49.5-10 17-32 22-49 12l-207.5-124.5c-15.5-9-24.5-25.5-24.5-43v-236c0-20 16-36 36-36"/><path fill="#000" d="M599.5 100C323.5 100 100 324 100 600s223.5 500 499.5 500q13.628 0 27.075-.72c29.36-1.565 45.115-33.25 36.515-61.365-6.85-22.375-28.08-38.745-51.475-38.08q-5.789.165-11.615.165c-221 0-400-179-400-400s179-400 400-400c212.605 0 386.34 165.657 399.23 375h-72.05c-10.68 0-16.445 12.525-9.495 20.635L1040.51 738.93c4.99 5.82 13.99 5.82 18.98 0l122.825-143.295c6.95-8.11 1.185-20.635-9.495-20.635h-73.435C1086.345 310.6 867.6 100 599.5 100"/></svg>

<svg width="1200" height="1200" viewBox="0 0 1200 1200" fill="none" xmlns="http://www.w3.org/2000/svg"><path d="M581.97 351.045H584.97C604.97 351.045 620.97 367.045 620.97 387.045V614.045L814.47 729.045C831.97 739.045 837.47 761.545 826.97 778.545C816.97 795.545 794.97 800.545 777.97 790.545L570.47 666.045C554.97 657.045 545.97 640.545 545.97 623.045V387.045C545.97 367.045 561.97 351.045 581.97 351.045Z" fill="black"/><path d="M599.5 100C323.5 100 100 324 100 600C100 876 323.5 1100 599.5 1100C608.585 1100 617.61 1099.76 626.575 1099.28C655.935 1097.715 671.69 1066.03 663.09 1037.915C656.24 1015.54 635.01 999.17 611.615 999.835C607.755 999.945 603.885 1000 600 1000C379 1000 200 821 200 600C200 379 379 200 600 200C812.605 200 986.34 365.657 999.23 575H927.18C916.5 575 910.735 587.525 917.685 595.635L1040.51 738.93C1045.5 744.75 1054.5 744.75 1059.49 738.93L1182.315 595.635C1189.265 587.525 1183.5 575 1172.82 575H1099.385C1086.345 310.6 867.6 100 599.5 100Z" fill="black"/></svg>
